devices/scalable-dark/media-optical-audio.svg

<svg height="64" width="64" xmlns="http://www.w3.org/2000/svg" xmlns:xlink="http://www.w3.org/1999/xlink"><linearGradient id="a" gradientTransform="matrix(1.5292812 0 0 1.529412 -592.82053 -769.10295)" gradientUnits="userSpaceOnUse" x1="409.57144" x2="409.57144" y1="540.79797" y2="506.798"><stop offset="0" stop-color="#049b78"/><stop offset="1" stop-color="#40ca85"/></linearGradient><linearGradient id="b" gradientUnits="userSpaceOnUse" x1="32.01561" x2="32" y1="41.54594" y2="24"><stop offset="0" stop-color="#b0ffd6"/><stop offset="1" stop-color="#f6fbfb"/></linearGradient><path d="m32 6c-14.40275 0-25.9980469 11.59602-25.9980469 26s11.5952969 26 25.9980469 26 25.998047-11.59602 25.998047-26-11.595297-26-25.998047-26zm0 23c1.662 0 3 1.338 3 3s-1.338 3-3 3-3-1.338-3-3 1.338-3 3-3z" fill="url(#a)" transform=""/><path d="m32 23c-4.986 0-9 4.014-9 9s4.014 9 9 9 9-4.014 9-9-4.014-9-9-9zm0 1a8 8 0 0 1 8 8 8 8 0 0 1 -8 8 8 8 0 0 1 -8-8 8 8 0 0 1 8-8zm0 1a7 7 0 0 0 -7 7 7 7 0 0 0 7 7 7 7 0 0 0 7-7 7 7 0 0 0 -7-7zm0 4c1.662 0 3 1.338 3 3s-1.338 3-3 3-3-1.338-3-3 1.338-3 3-3z" fill="url(#b)" transform=""/><path d="m471.11732 530.73981c-.76741.21527-1.38522 1.07176-1.38522 1.90367v13.19006c-.77819-.42666-1.77761-.59922-2.81376-.31728-1.86973.50868-3.04139 2.15267-2.64059 3.67146.40079 1.51871 2.24266 2.36706 4.11239 1.85838 1.49167-.40583 2.5199-1.55412 2.68388-2.76492l.0433-12.46485 9.69662-2.71956v9.83584c-.77819-.42665-1.77762-.59916-2.81374-.31728-1.86976.50868-3.04141 2.15268-2.6406 3.67145.40079 1.51878 2.24266 2.36712 4.1124 1.85838 1.49166-.40578 2.51989-1.55407 2.68388-2.76492l.0433-16.2269c0-.62395-.36827-1.09074-.86578-1.17852z" fill="#d5fde9" transform="matrix(.41074315 0 0 .41074315 -146.771646344692 -189.561496654938)"/></svg>

<?xml version="1.0" encoding="UTF-8" standalone="no"?>
<!-- Created with Inkscape (http://www.inkscape.org/) -->

<svg
   xmlns:sketch="http://www.bohemiancoding.com/sketch/ns"
   xmlns:osb="http://www.openswatchbook.org/uri/2009/osb"
   xmlns:dc="http://purl.org/dc/elements/1.1/"
   xmlns:cc="http://creativecommons.org/ns#"
   xmlns:rdf="http://www.w3.org/1999/02/22-rdf-syntax-ns#"
   xmlns:svg="http://www.w3.org/2000/svg"
   xmlns="http://www.w3.org/2000/svg"
   xmlns:xlink="http://www.w3.org/1999/xlink"
   xmlns:sodipodi="http://sodipodi.sourceforge.net/DTD/sodipodi-0.dtd"
   xmlns:inkscape="http://www.inkscape.org/namespaces/inkscape"
   width="64"
   height="64"
   id="svg5453"
   version="1.1"
   inkscape:version="0.91 r13725"
   sodipodi:docname="media-optical-audio.svg">
  <defs
     id="defs5455">
    <linearGradient
       inkscape:collect="always"
       id="linearGradient4204">
      <stop
         style="stop-color:#b0ffd6;stop-opacity:1"
         offset="0"
         id="stop4206" />
      <stop
         style="stop-color:#f6fbfb;stop-opacity:1"
         offset="1"
         id="stop4208" />
    </linearGradient>
    <linearGradient
       y2="506.798"
       x2="409.57144"
       y1="540.79797"
       x1="409.57144"
       gradientTransform="matrix(1.5292812,0,0,1.529412,-592.82053,-769.10295)"
       gradientUnits="userSpaceOnUse"
       id="linearGradient3834"
       xlink:href="#linearGradient4531"
       inkscape:collect="always" />
    <linearGradient
       id="linearGradient4207"
       osb:paint="gradient">
      <stop
         style="stop-color:#3498db;stop-opacity:1;"
         offset="0"
         id="stop3371" />
      <stop
         style="stop-color:#3498db;stop-opacity:0;"
         offset="1"
         id="stop3373" />
    </linearGradient>
    <linearGradient
       inkscape:collect="always"
       id="linearGradient4531">
      <stop
         style="stop-color:#049b78;stop-opacity:1"
         offset="0"
         id="stop4533" />
      <stop
         style="stop-color:#40ca85;stop-opacity:1"
         offset="1"
         id="stop4535" />
    </linearGradient>
    <linearGradient
       inkscape:collect="always"
       xlink:href="#linearGradient4204"
       id="linearGradient4202"
       x1="32.01561"
       y1="41.54594"
       x2="32"
       y2="24"
       gradientUnits="userSpaceOnUse" />
  </defs>
  <sodipodi:namedview
     id="base"
     pagecolor="#5a5a5a"
     bordercolor="#666666"
     borderopacity="1.0"
     inkscape:pageopacity="0"
     inkscape:pageshadow="2"
     inkscape:zoom="5.6568545"
     inkscape:cx="-26.944767"
     inkscape:cy="40.030353"
     inkscape:document-units="px"
     inkscape:current-layer="layer1"
     showgrid="false"
     fit-margin-top="0"
     fit-margin-left="0"
     fit-margin-right="0"
     fit-margin-bottom="0"
     inkscape:window-width="1366"
     inkscape:window-height="642"
     inkscape:window-x="0"
     inkscape:window-y="33"
     inkscape:window-maximized="1"
     inkscape:showpageshadow="false"
     borderlayer="true"
     showguides="false"
     inkscape:snap-bbox="true"
     inkscape:object-nodes="true"
     inkscape:snap-global="true"
     showborder="false">
    <inkscape:grid
       type="xygrid"
       id="grid4063"
       originx="7.9999866px"
       originy="7.9999772px" />
    <sodipodi:guide
       position="0,0"
       orientation="0,64"
       id="guide4196" />
    <sodipodi:guide
       position="64,0"
       orientation="-64,0"
       id="guide4198" />
    <sodipodi:guide
       position="64,64"
       orientation="0,-64"
       id="guide4200" />
    <sodipodi:guide
       position="6,58"
       orientation="52,0"
       id="guide4202" />
    <sodipodi:guide
       position="6,6"
       orientation="0,52"
       id="guide4204" />
    <sodipodi:guide
       position="58,6"
       orientation="-52,0"
       id="guide4206" />
    <sodipodi:guide
       position="58,58"
       orientation="0,-52"
       id="guide4208" />
  </sodipodi:namedview>
  <metadata
     id="metadata5458">
    <rdf:RDF>
      <cc:Work
         rdf:about="">
        <dc:format>image/svg+xml</dc:format>
        <dc:type
           rdf:resource="http://purl.org/dc/dcmitype/StillImage" />
        <dc:title />
      </cc:Work>
    </rdf:RDF>
  </metadata>
  <g
     inkscape:label="Layer 1"
     inkscape:groupmode="layer"
     id="layer1"
     transform="translate(-376.57144,-491.79797)">
    <path
       style="fill:url(#linearGradient3834);fill-opacity:1.0;stroke:none"
       d="M 32 6 C 17.59725 6 6.0019531 17.59602 6.0019531 32 C 6.0019531 46.40398 17.59725 58 32 58 C 46.40275 58 57.998047 46.40398 57.998047 32 C 57.998047 17.59602 46.40275 6 32 6 z M 32 29 C 33.662 29 35 30.338 35 32 C 35 33.662 33.662 35 32 35 C 30.338 35 29 33.662 29 32 C 29 30.338 30.338 29 32 29 z "
       transform="translate(376.57144,491.79797)"
       id="rect4146" />
    <path
       style="fill:url(#linearGradient4202);fill-opacity:1;stroke:none"
       d="M 32 23 C 27.014 23 23 27.014 23 32 C 23 36.986 27.014 41 32 41 C 36.986 41 41 36.986 41 32 C 41 27.014 36.986 23 32 23 z M 32 24 A 8 8 0 0 1 40 32 A 8 8 0 0 1 32 40 A 8 8 0 0 1 24 32 A 8 8 0 0 1 32 24 z M 32 25 A 7 7 0 0 0 25 32 A 7 7 0 0 0 32 39 A 7 7 0 0 0 39 32 A 7 7 0 0 0 32 25 z M 32 29 C 33.662 29 35 30.338 35 32 C 35 33.662 33.662 35 32 35 C 30.338 35 29 33.662 29 32 C 29 30.338 30.338 29 32 29 z "
       transform="translate(376.57144,491.79797)"
       id="rect4270" />
    <g
       transform="translate(383.67784,476.13736)"
       id="g4186"
       style="fill:#d5fde9;fill-opacity:1">
      <g
         transform="translate(0,0.26550102)"
         id="g4168"
         style="fill:#d5fde9;fill-opacity:1">
        <g
           inkscape:transform-center-y="-3.8989704"
           inkscape:transform-center-x="2.2448569"
           inkscape:label="Layer 1"
           id="layer1-6"
           transform="matrix(0.41074315,0,0,0.41074315,-154.05051,-174.1807)"
           style="fill:#d5fde9;fill-opacity:1">
          <g
             id="layer1-3"
             inkscape:label="Layer 1"
             transform="translate(0.41988239,0.03484499)"
             style="fill:#d5fde9;fill-opacity:1">
            <path
               style="fill:#d5fde9;fill-opacity:1"
               inkscape:connector-curvature="0"
               sketch:type="MSShapeGroup"
               id="Music"
               d="m 471.11732,530.73981 c -0.76741,0.21527 -1.38522,1.07176 -1.38522,1.90367 l 0,13.19006 c -0.77819,-0.42666 -1.77761,-0.59922 -2.81376,-0.31728 -1.86973,0.50868 -3.04139,2.15267 -2.64059,3.67146 0.40079,1.51871 2.24266,2.36706 4.11239,1.85838 1.49167,-0.40583 2.5199,-1.55412 2.68388,-2.76492 l 0.0433,-12.46485 9.69662,-2.71956 0,9.83584 c -0.77819,-0.42665 -1.77762,-0.59916 -2.81374,-0.31728 -1.86976,0.50868 -3.04141,2.15268 -2.6406,3.67145 0.40079,1.51878 2.24266,2.36712 4.1124,1.85838 1.49166,-0.40578 2.51989,-1.55407 2.68388,-2.76492 l 0.0433,-16.2269 c 0,-0.62395 -0.36827,-1.09074 -0.86578,-1.17852 l -10.21608,2.76499 z" />
          </g>
        </g>
      </g>
    </g>
  </g>
</svg>
